X:1
T:Deventer, LM
T:Deventer, LM
T:Berthold Tours, 1872
T:Public Domain Courtesy of the Cyber Hymnal™
C:Berthold Tours, 1872
Z:Public Domain
Z:Courtesy of the Cyber Hymnal™
%%score ( 1 2 ) ( 3 4 )
L:1/8
Q:1/4=107
M:4/4
K:C
V:1 treble 
V:2 treble 
V:3 bass 
V:4 bass 
V:1
 [EG]2 | [EG]2 [Ec]2 [EB]2 [FA]2 | [CG]3 [B,F] [CE]2 [DG]2 | [Cc]2 [DA]2 [Dd]2 (GA) | %4
 [DB]2 [DA]2 [DG]2 [B,G]2 | [CG]2 [Ec]2 [^DB]2 [^FA]2 | G2 [^CA]2 [DF]2 [DG]2 | %7
 [CE]2 [CG]2 [CA]2 [Fd]2 | [FB]3 [Ec] !fermata![Ec]2 |] %9
V:2
 x2 | x8 | x8 | x6 E2 | x8 | x8 | (ED) x6 | x8 | x6 |] %9
V:3
 C2 | C2 [A,C]2 [G,C]2 [F,C]2 | [E,G,]3 [D,G,] [C,G,]2 [B,,G,]2 | [A,,A,]2 ^F,2 [B,,G,]2 [C,G,]2 | %4
 [D,G,]2 (^F,C) [G,B,]2 G,2 | [E,G,]2 (A,G,) [B,,^F,]2 [^D,B,]2 | %6
 [E,B,]2 [A,,A,]2 [D,A,]2 [B,,G,]2 | [C,G,]2 (CB,) A,2 [D,A,]2 | G,3 [C,G,] !fermata![C,G,]2 |] %9
V:4
 C2 | C2 x6 | x8 | x2 (D,C,) x4 | x2 D,2 x (G,=F,) x | x2 A,,2 x4 | x8 | x2 E,2 (F,E,) x2 | %8
 G,3 x3 |] %9

